resources/haticons/SVG/cool.svg

<!-- Generated by IcoMoon.io -->
<svg version="1.1" xmlns="http://www.w3.org/2000/svg" width="24" height="24" viewBox="0 0 24 24">
<title>cool</title>
<path d="M12 24c6.627 0 12-5.373 12-12s-5.373-12-12-12-12 5.373-12 12 5.373 12 12 12zM12 2.25c5.385 0 9.75 4.365 9.75 9.75s-4.365 9.75-9.75 9.75-9.75-4.365-9.75-9.75 4.365-9.75 9.75-9.75zM18.75 6c0.413 0 0.75 0.337 0.75 0.75v2.25c0 0.825-0.675 1.5-1.5 1.5h-3c-0.825 0-1.5-0.675-1.5-1.5h-3c0 0.825-0.675 1.5-1.5 1.5h-3c-0.825 0-1.5-0.675-1.5-1.5v-2.25c0-0.413 0.338-0.75 0.75-0.75h4.5c0.413 0 0.75 0.337 0.75 0.75v0.75h3v-0.75c0-0.413 0.337-0.75 0.75-0.75h4.5zM12 18c2.185 0 4.096-1.168 5.146-2.913l1.286 0.772c-1.312 2.181-3.701 3.641-6.432 3.641-1.136 0-2.212-0.253-3.177-0.705l0.777-1.296c0.735 0.321 1.546 0.501 2.399 0.501z"></path>
</svg>

<svg xmlns="http://www.w3.org/2000/svg" width="24" height="24"><path d="M12 24c6.627 0 12-5.373 12-12S18.627 0 12 0 0 5.373 0 12s5.373 12 12 12zm0-21.75c5.385 0 9.75 4.365 9.75 9.75s-4.365 9.75-9.75 9.75S2.25 17.385 2.25 12 6.615 2.25 12 2.25zM18.75 6c.413 0 .75.337.75.75V9c0 .825-.675 1.5-1.5 1.5h-3c-.825 0-1.5-.675-1.5-1.5h-3c0 .825-.675 1.5-1.5 1.5H6c-.825 0-1.5-.675-1.5-1.5V6.75c0-.413.338-.75.75-.75h4.5c.413 0 .75.337.75.75v.75h3v-.75c0-.413.337-.75.75-.75h4.5zM12 18a5.998 5.998 0 0 0 5.146-2.913l1.286.772A7.497 7.497 0 0 1 12 19.5a7.468 7.468 0 0 1-3.177-.705l.777-1.296a5.98 5.98 0 0 0 2.399.501z"/></svg>
